storage/app/icons/phosphoricons/thin/selection-thin.svg

<svg xmlns="http://www.w3.org/2000/svg" fill="currentColor" viewBox="0 0 256 256"><path d="M148 40a4 4 0 0 1-4 4h-32a4 4 0 0 1 0-8h32a4 4 0 0 1 4 4m-4 172h-32a4 4 0 0 0 0 8h32a4 4 0 0 0 0-8m64-176h-24a4 4 0 0 0 0 8h24a4 4 0 0 1 4 4v24a4 4 0 0 0 8 0V48a12 12 0 0 0-12-12m8 72a4 4 0 0 0-4 4v32a4 4 0 0 0 8 0v-32a4 4 0 0 0-4-4m0 72a4 4 0 0 0-4 4v24a4 4 0 0 1-4 4h-24a4 4 0 0 0 0 8h24a12 12 0 0 0 12-12v-24a4 4 0 0 0-4-4M40 148a4 4 0 0 0 4-4v-32a4 4 0 0 0-8 0v32a4 4 0 0 0 4 4m32 64H48a4 4 0 0 1-4-4v-24a4 4 0 0 0-8 0v24a12 12 0 0 0 12 12h24a4 4 0 0 0 0-8m0-176H48a12 12 0 0 0-12 12v24a4 4 0 0 0 8 0V48a4 4 0 0 1 4-4h24a4 4 0 0 0 0-8"/></svg>

<svg xmlns="http://www.w3.org/2000/svg" viewBox="0 0 256 256" fill="currentColor"><path d="M148,40a4,4,0,0,1-4,4H112a4,4,0,0,1,0-8h32A4,4,0,0,1,148,40Zm-4,172H112a4,4,0,0,0,0,8h32a4,4,0,0,0,0-8ZM208,36H184a4,4,0,0,0,0,8h24a4,4,0,0,1,4,4V72a4,4,0,0,0,8,0V48A12,12,0,0,0,208,36Zm8,72a4,4,0,0,0-4,4v32a4,4,0,0,0,8,0V112A4,4,0,0,0,216,108Zm0,72a4,4,0,0,0-4,4v24a4,4,0,0,1-4,4H184a4,4,0,0,0,0,8h24a12,12,0,0,0,12-12V184A4,4,0,0,0,216,180ZM40,148a4,4,0,0,0,4-4V112a4,4,0,0,0-8,0v32A4,4,0,0,0,40,148Zm32,64H48a4,4,0,0,1-4-4V184a4,4,0,0,0-8,0v24a12,12,0,0,0,12,12H72a4,4,0,0,0,0-8ZM72,36H48A12,12,0,0,0,36,48V72a4,4,0,0,0,8,0V48a4,4,0,0,1,4-4H72a4,4,0,0,0,0-8Z"/></svg>
